!!!COM: Scriabin, Alexander
!!!OTL@@FR: Mazurka en do dièse mineur
!!!OTL@@EN: Mazurka in C# Minor
!!!OPR@@FR: 9 Mazurkas
!!!OPR@@EN: 9 Mazurkas
!!!OPS: 25
!!!ONM: 5
!!!ODT: 1899
!!!AGN: Mazurka
**kern	**kern	**dynam
*staff2	*staff1	*staff1/2
*Ipiano	*Ipiano	*
*clefF4	*clefG2	*
*k[f#c#g#d#]	*k[f#c#g#d#]	*
*c#:	*c#:	*
*M3/4	*M3/4	*
=1	=1	=1
*^	*	*
16qCC#\LL	.	.	.
16qGG#JJ	.	.	.
*	*	*^	*
2C#	2G#	2e	8.eeL	mf
.	.	.	16dd#Jk	.
.	.	.	4g#	.
4C#	4G#	[4e	[4g#	.
=2	=2	=2	=2	=2
*	*	*	*^	*
2.C#	4A	4.c#\	4e]	8g#L]	.
.	.	.	.	8f#	.
.	8G#L	.	4.e	8b	.
.	8F#J	8c#\	.	8a	.
.	12AL	8g#\L	.	8cc#	.
.	12B	.	.	.	.
.	.	8f#J	8d#	8dd#J	.
.	12AJ	.	.	.	.
=3	=3	=3	=3	=3	=3
2.C#	2G#	8c#\	2e	8.eeL	.
.	.	8r	.	.	.
.	.	.	.	16dd#Jk	.
.	.	4ryy	.	4.gg#	.
*	*	*v	*v	*	*
.	4e	8cc#L	.	.
.	.	8bJ	8gg#	.
=4	=4	=4	=4	=4
2.F#	4e	4a	8gg#L	<
.	.	.	8ff#	.
.	8d#L	4f#	8b	.
.	8c#J	.	8a	.
.	12aL	4cc#	8cc# 8ee	.
.	12b	.	.	.
.	.	.	8dd#J 8ff#	.
.	12aJ	.	.	.
!!LO:LB:g=original
=5	=5	=5	=5	=5
*	*	*	*^	*
2c#	8.f##XL	4cc#\	8.dd#L	8.aaL	.
.	16g#Jk	.	16eeJk	16gg#Jk	.
.	4g#	4.g#\	4ee	4ccc#	.
4C#	4r	.	4ee	4ccc#	.
.	.	8b\	.	.	.
*v	*v	*	*	*	*
=6	=6	=6	=6	=6
4FFF# 4FF# 4C#	8a\	4ee	8ccc#L	f
.	8r	.	8bbJ	.
*	*	*v	*v	*
4E 4A 4e	4a 4cc#	12aaL	.
.	.	12gg#	.
.	.	24r	.
.	.	24cc#Jk	.
4G# 4A 4g#	4a [4cc#	[4ee	.
=7	=7	=7	=7
4AAA 4AA 4F#	8cc#L]	8eeL]	.
.	8b#XJ	8dd#J	>
4F# 4c# 4f#	4cc#	8cc#L	.
.	.	8f#J	<
4DD# 4D#	4c# 4f#	12g#L	(
.	.	12bn	(
.	.	12aJ	[
=8	=8	=8	=8
*	*	*^	*
2.GG# 2.G#	2c#\	8f#L	[4g#	>
.	.	8eJ	.	)
.	.	4d#	12g#L]	]
.	.	.	12f##X	.
.	.	.	12g#J	.
.	4B#X\	4f#X	8aL	.
.	.	.	8g#J	.
*	*	*v	*v	*
*	*v	*v	*
=9	=9	=9
*^	*^	*
16qCC#\LL	.	.	.	.
16qGG#JJ	.	8qc#\	.	.
2C#	2G#	2e	8.eeL	mf
.	.	.	16dd#Jk	.
.	.	.	4g#	.
4C#	4G#	[4e	[4g#	.
!!LO:LB:g=original
=10	=10	=10	=10	=10
*	*	*	*^	*
2.C#	4A	4.c#\	4e]	8g#L]	.
.	.	.	.	8f#	.
.	8G#L	.	4.e	8b	.
.	8F#J	8c#\	.	8a	.
.	12AL	8g#\L	.	8cc#	.
.	12B	.	.	.	.
.	.	8f#J	8d#	8dd#J	.
.	12AJ	.	.	.	.
=11	=11	=11	=11	=11	=11
2.C#	2G#	8c#\	2e	8.eeL	.
.	.	8r	.	.	.
.	.	.	.	16dd#Jk	.
.	.	4ryy	.	4.gg#	.
*	*	*v	*v	*	*
.	4e	8cc#L	.	.
.	.	8bJ	8gg#	.
=12	=12	=12	=12	=12
2.F#	4e	4a	8gg#L	.
.	.	.	8ff#	.
.	8d#L	4f#	8b	.
.	8c#J	.	8a	.
.	12aL	4cc#	8cc# 8ee	.
.	12b	.	.	.
.	.	.	8dd#J 8ff#	.
.	12aJ	.	.	.
=13	=13	=13	=13	=13
*	*	*	*^	*
2.c#	8.f##XL	4cc#\	8.dd#L	8.aaL	.
.	16g#Jk	.	16eeJk	16gg#Jk	.
*	*	*	*v	*v	*
.	4.g#	4cc# 4ee	4bb	.
.	.	4g# 4ee	4bb	.
.	8g#	.	.	.
=14	=14	=14	=14	=14
*	*	*	*^	*
.	16qC#LL	.	.	.	.
.	16qG#JJ	.	.	.	.
8.r	2c# 2g#	8b\	4ee	12bbL	f
.	.	.	.	12aa#X	.
.	.	8r	.	.	.
.	.	.	.	12gg#J	.
16B 16b	.	.	.	.	.
*	*	*	*v	*v	*
4B 4b	.	12dd#L	12ff#L	.
.	.	12cc#	12ee	.
.	.	12eJ	12g#J	.
4B 4b	4e	4b	6dd#	.
.	.	.	12dd#	.
*	*	*v	*v	*
!!LO:LB:g=original
=15	=15	=15	=15
12BL 12b	4e	12g#L 12dd#	f
12A#X 12a#X	.	12a#X 12dd#	.
12G#J 12g#	.	12bJ 12dd#	.
12F#L 12f#	4B	12dd#L 12gg#	.
12E 12e	.	12cc# 12gg#	<
12BBJ 12B	.	12dd#J 12gg#	(
6D# 6d#	4G#	12ff#L 12bb	(
.	.	12ff# 12bb	(
12C# 12c#	.	12eeJ 12bb	[
*v	*v	*	*
=16	=16	=16
*	*^	*
8GG# 8D# 8G# 8B	8dd# 8gg#	12ddd#L	sf
.	.	12aa#X	.
8r	8r	.	.
.	.	12bbJ	.
4r	4r	12aa#L	.
.	.	12dd#	>
.	.	12eeJ	)
4r	4re	12dd#L	)
.	.	12g#	)
.	.	12d#J	]
*	*v	*v	*
=17	=17	=17
*	*	*^
12GGG#L 12GG#	4r	.	.
!	!	!LO:HP:b=2	!
12AAAn 12AAn	.	<	.
12GGG#J 12GG#	.	(	.
!	!	!LO:HP:b=2	!
*	*^	*	*
4EE 4E	2B 2f#	6g#	[ >	.
.	.	12g#	)	<
4DDn 4Dn	.	12g#L	]	(
.	.	12a	.	(
.	.	12g#J	.	[
=18	=18	=18	=18	=18
12GGG#L 12GG#	2B 2f#	4..b	.	.
!	!	!	!LO:HP:b=2	!
12AAA 12AA	.	.	<	.
12GGG#J 12GG#	.	.	(	.
!	!	!	!LO:HP:b=2	!
4EE 4E	.	.	[ >	.
.	.	16b	)	>
4DDn 4Dn	4B 4f#	12bL	]	)
.	.	12a	.	]
.	.	12g#J	.	.
*	*	*	*v	*v
!!LO:LB:g=original
=19	=19	=19	=19
2CC# 2C#	4B 4f#	12f#L	<
.	.	12g#	(
.	.	12bJ	(
.	2B 2f#	6ee	(
.	.	12ddn	(
4C# 4B 4f#	.	12aaL	(
.	.	12gg#	(
.	.	12ff#J	[
*	*v	*v	*
=20	=20	=20
*^	*	*
2C# 2e#X	4.B	12gg#L	f >
.	.	12ddn	)
.	.	12cc#J	)
.	.	12eenL	)
.	.	12dd	)
.	8dn	.	)
.	.	12g#J	)
4F# 4f#	12dL	12bL	]
.	12c#	12a	.
.	24AJk	24f#Jk	.
.	24rA	24r	.
*v	*v	*	*
=21	=21	=21
*	*	*^
!	!	!LO:HP:b=2	!
12DDD#XL 12DD#X	4r	<	.
12EEE 12EE	.	(	.
12DDD#J 12DD#	.	(	.
*	*^	*	*
!	!	!	!LO:HP:b=2	!
4BBB 4BB	2F# 2c#	12d#XL	[ >	.
.	.	12e	)	.
.	.	12d#J	)	<
4AAA 4AA	.	12d#L	]	(
.	.	12c#	.	(
.	.	12d#J	.	[
=22	=22	=22	=22	=22
!	!	!	!LO:HP:b=2	!
12DDD#L 12DD#	2F# 2c#	[4f#	<	>
12EEE 12EE	.	.	(	)
12DDD#J 12DD#	.	.	(	)
!	!	!	!LO:HP:b=2	!
4BBB 4BB	.	6f#]	[ >	)
.	.	12f#	)	]
4AAA 4AA	4F# 4c#	12f#L	]	.
.	.	12e	.	.
.	.	12d#J	.	.
*	*	*	*v	*v
!!LO:LB:g=original
=23	=23	=23	=23
2.GGG# 2.GG#	4F# 4c#	12c#L	.
.	.	12d#	.
.	.	12f#J	.
.	2F# 2c#	6b	.
.	.	12a	<
.	.	12ff#L	.
.	.	12ee	.
.	.	12dd#J	.
=24	=24	=24	=24
16D#LL	2c#	12eeL	.
16GG#	.	.	.
.	.	12dd#	.
16GG#	.	.	.
.	.	12g#J	.
16GGG#JJ	.	.	.
16ELL	.	12bL	.
16GG#	.	.	.
.	.	12a	.
16GG#	.	.	.
.	.	12f##XJ	.
16GGG#JJ	.	.	.
16F#XLL	4B#X	12g#L	.
16GG#	.	.	.
.	.	12dn	.
16GG#	.	.	.
.	.	12d#XJ	.
16GGG#JJ	.	.	.
*	*v	*v	*
*	*clefF4	*
=25	=25	=25
*^	*^	*
*	*	*	*^	*
2.CC#	2.GG#	2E\	8c#	8.eL	f
.	.	.	8ryy	.	.
.	.	.	.	16d#Jk	.
*	*	*	*v	*v	*
.	.	.	4G#	.
.	.	4E	4G#	.
.	16qFF##XLL	.	.	.
.	16qGG#	.	.	.
.	16qBBJJ	.	.	.
=26	=26	=26	=26	=26
2.CC#	4AA	4E	8G#L	.
.	.	.	8F#	.
.	8GG#L	[4E	8B	.
.	8FF#XJ	.	8A	.
.	12AAL	8EL] 8G#	8c#	.
.	12BB	.	.	.
.	.	8D#J 8F#	8d#J	.
.	12AAJ	.	.	.
!!LO:LB:g=original
=27	=27	=27	=27	=27
*	*	*	*^	*
2.CC#	2GG#	8C#\	2E	8.eL	.
.	.	8r	.	.	.
.	.	.	.	16d#Jk	.
.	.	4ryy	.	4.g#	.
*	*	*v	*v	*	*
.	4E	8c#L	.	.
.	.	8BJ	8g#	.
=28	=28	=28	=28	=28
2.FF#	4E	4A	8g#L	<
.	.	.	8f#	.
.	8D#L	4F#	8B	.
.	8C#J	.	8A	.
.	12AL	8c#L	8e	.
.	12B	.	.	.
.	.	8d#J	8f#J	.
.	12AJ	.	.	.
*	*	*v	*v	*
*	*	*clefG2	*
=29	=29	=29	=29
*	*	*^	*
2C#	8.F##XL	8.d#L	8.aL	.
.	16G#Jk	16eJk	16g#Jk	.
*	*	*	*^	*
.	4G#	4c#\	4e	4ee	.
4C#	4r	4e\	4b	4ee	.
*	*	*	*v	*v	*
*v	*v	*	*	*
=30	=30	=30	=30
8.FFF# 8.FF# 8.C#	4e 4a	12eeL	ff
.	.	12dd#	.
.	.	12cc#J	.
16E 16e	.	.	.
4E 4e	12g#L	12bL	.
.	12f#	12a	.
.	12AJ	12c#J	.
*^	*	*	*
4E 4e	4A	4e	6g#	.
.	.	.	12g#	.
*	*	*v	*v	*
=31	=31	=31	=31
12EL 12e	4A	12c#L 12g#	.
12D# 12d#	.	12d# 12g#	.
12C#J 12c#	.	12eJ 12g#	.
12BBL 12B	4E	12g#L 12cc#	.
12AA 12A	.	12f# 12cc#	.
12EEJ 12E	.	12g#J 12cc#	.
6GG# 6G#	4C#	12bL 12ee	<
.	.	12b 12ee	(
12FF# 12F#	.	12aJ 12ee	[
*v	*v	*	*
!!LO:LB:g=original
=32	=32	=32
*	*^	*
8CC# 8GG# 8E	8g#	12gg#L	sf
.	.	12dd#	.
8r	8r	.	.
.	.	12eeJ	.
4r	4r	12dd#L	.
.	.	12g#	>
.	.	12aJ	)
4r	4r	12g#L	)
.	.	12b#X	)
.	.	12cc#J	]
=33	=33	=33	=33
4CC# 4C#	4r	8.eeL	f
.	.	16ddnJk	.
*^	*	*	*
4C#	4A	4f#	4a	.
4C#	4G#	[4e	4a	.
=34	=34	=34	=34	=34
2.C#	2F#	4e]	8aL	.
.	.	.	8g#	.
.	.	4.e	8b	<
.	.	.	8a	(
*	*	*	*^	*
.	12AL	.	8g#L	8cc#	(
.	12B	.	.	.	(
.	.	8d#\	8f#J	8dd#J	(
.	12AJ	.	.	.	[
=35	=35	=35	=35	=35	=35
2.C#	2G#	8c#\	2e	8.eeL	.
.	.	8r	.	.	.
.	.	.	.	16dd#Jk	.
.	.	4ryy	.	4.gg#	.
*	*	*v	*v	*	*
.	4e	8cc#L	.	.
.	.	8bJ	8gg#	.
=36	=36	=36	=36	=36
4F#	8eL	4a	8gg#L	.
.	8d#J	.	8ff#J	.
4C#	4e	4g#	4ee	>
4r	4r	4r	8b#XL	)
.	.	.	8cc#J	]
*v	*v	*	*	*
!!LO:LB:g=original
=37	=37	=37	=37
4r	4r	8.eeL	mp
.	.	16ddnJk	.
*^	*	*	*
4C#	4F#	4dn	4a	.
4Cn	4F#	4d	4a	.
=38	=38	=38	=38	=38
2.BB	2F#	4dn	8aL	<
.	.	.	8g#	.
.	.	4d#X	8b	.
.	.	.	8a	.
.	4B	4a	8ddn	.
.	.	.	8dd#XJ	.
*v	*v	*	*	*
=39	=39	=39	=39
4r	4g#	8.ff#L	.
.	.	16eeJk	.
*^	*	*	*
4D#	4G#	4e	4b	.
4Dn	4G#	4e	4b	.
=40	=40	=40	=40	=40
2.C#	2.G#	4.e	8bL	<
.	.	.	8a#X	.
.	.	.	8cc#	>
.	.	4.e#X	8b	)
.	.	.	8ee#X	)
.	.	.	8ee#J	]
=41	=41	=41	=41	=41
2.Cn	8G#L	2.fn	8.ffnL	pp
.	8AnJ	.	.	.
.	.	.	16eeJk	.
.	4e	.	4.g#	.
.	8dnL	.	.	.
.	8cnJ	.	8an	.
=42	=42	=42	=42	=42
2.Cn	2A	2.e	8ddnL	<
.	.	.	8ccnJ	.
.	.	.	4.f#X	.
.	4B-X	.	.	.
.	.	.	8gn	.
!!LO:LB:g=original
=43	=43	=43	=43	=43
2BB	2Bn	2e	8g#XL	.
.	.	.	8f#	>
.	.	.	8a	.
.	.	.	8g#	.
*	*	*v	*v	*
*v	*v	*	*
4B 4e 4g#	8b	.
.	8bJ	.
=44	=44	=44
2B 2d# 2g#	8bL	>
.	8a#X	)
.	8cc#	)
.	8bJ	)
*^	*	*
4An 4d#	8BL	4gg#	)
.	8BJ	.	]
=45||	=45||	=45||	=45||
*	*^	*	*
4rAA	2.B/	4ra	4r	pp
2A\	.	4g#	2dd#	.
.	.	4f#	.	.
=46	=46	=46	=46	=46
2G#\	4B/	[2.e	8eeL	.
.	.	.	8dd#J	.
.	[2c#/	.	4.cc#	.
[4Gn\	.	.	.	.
.	.	.	8b	.
*	*v	*v	*	*
=47	=47	=47	=47
4G]	4.c#] 4.e]	4.a	.
[2F#	.	.	.
.	[4.e [4.a	8gg#X	.
.	.	8ff#L	.
.	.	8cc#J	.
=48	=48	=48	=48
4F#]	4e] 4a]	8dd#L	.
.	.	8cc#J	.
4B	4d# 4g#	4b	.
[4A [4f#	8c#L	8cc#L	.
.	8BJ	8dd#J	.
!!LO:LB:g=original
=49	=49	=49	=49
*	*^	*	*
4A\]	4B/	4f#]	4bb	.
*	*v	*v	*	*
4Gn	[2B [2f#	8bL	.
.	.	8ff#J	.
[4G#X	.	8.eeL	.
.	.	16ddnJk	.
=50	=50	=50	=50
4G#]	4B] 4f#]	4ddn	.
[2C# 2B	4f#	8r	.
.	.	8cc#	.
.	[4e#X	8ddL	.
.	.	8cc#J	.
=51	=51	=51	=51
4C#]	4A 4e#]	4aa	.
4Fn	[2A [2en	8aL	.
.	.	8ee	.
[4F#X	.	8ddn	.
.	.	8ccnJ	.
=52	=52	=52	=52
4F#]	4A] 4e]	4ccn	.
[2BB 2A	4e	8r	.
.	.	8b	.
.	[4d#X	8cc#XL	.
.	.	8bJ	.
=53	=53	=53	=53
4BB]	4G# 4d#]	4gg#	.
*	*	*^	*
4G#	[2e	4b	8bL	.
.	.	.	8eeJ	.
[4F#	.	[4a#X	8.dd#L	.
.	.	.	16cc#Jk	.
=54	=54	=54	=54	=54
4F#]	4e]	4a#]	4cc#	.
4G#	4.e	4b	8bL	.
.	.	.	8ee	.
8F#	.	4a#X	8dd#	.
8rC	8rc	.	8cc#J	.
*	*	*v	*v	*
*v	*v	*	*
=55	=55	=55
8.EL 8.e	2g# 2b#X	f
16D#Jk 16d#	.	.
4GG# 4G#	.	.
4GG# 4G#	4r	.
!!LO:LB:g=original
=56	=56	=56
*^	*	*
2.rFF	4r	4r	.
*	*	*^	*
.	4G#	4b	8bnL	pp
.	.	.	8ee	.
.	4A#X	4cc#	8gg#	.
.	.	.	8ff#J	.
*	*	*v	*v	*
=57	=57	=57	=57
*	*^	*	*
4rAA	2.B/	4ra	4r	.
2An\	.	4g#	2dd#	.
.	.	4f#	.	.
=58	=58	=58	=58	=58
2G#\	4B/	[2.e	8eeL	.
.	.	.	8dd#J	.
.	[2c#/	.	4.cc#	.
[4Gn\	.	.	.	.
.	.	.	8b	.
*	*v	*v	*	*
=59	=59	=59	=59
4G]	4.c#] 4.e]	4.a	.
[2F#	.	.	.
.	[4.e [4.a	8gg#X	.
.	.	8ff#L	.
.	.	8cc#J	.
=60	=60	=60	=60
4F#]	4e] 4a]	8dd#L	.
.	.	8cc#J	.
4B	4d# 4g#	4b	.
*	*^	*	*
[4A\	8c#/L	[4f#	8cc#L	.
.	8BJ	.	8dd#J	.
=61	=61	=61	=61	=61
4A\]	4B/	4f#]	4bb	.
*	*v	*v	*	*
4Gn	[2B [2f#	8bL	.
.	.	8ff#J	.
[4G#X	.	8eeL	.
.	.	8ddnJ	.
!!LO:LB:g=original
=62	=62	=62	=62
4G#]	4B] 4f#]	4ddn	.
[2C# 2B	4f#	8r	.
.	.	8cc#	.
.	[4e#X	8ddL	.
.	.	8cc#J	.
=63	=63	=63	=63
4C#] 4A	4e#]	4aa	.
4Fn	[2A [2en	8aL	.
.	.	8ee	.
[4F#X	.	8ddn	.
.	.	8ccnJ	.
=64	=64	=64	=64
4F#]	4A] 4e]	4ccn	.
[2BB 2A	4e	8r	.
.	.	8b	.
.	[4d#X	8cc#XL	.
.	.	8bJ	.
=65	=65	=65	=65
4BB]	4G# 4d#]	4gg#	.
*	*	*^	*
4G#	[2e	4b	8bL	.
.	.	.	8eeJ	.
[4F#	.	[4a#X	8.dd#L	.
.	.	.	16cc#Jk	.
=66	=66	=66	=66	=66
4F#]	4e]	4a#]	4cc#	.
4G#	[2e	4b	8bL	.
.	.	.	8eeJ	.
[4F#	.	[4a#X	8.dd#L	.
.	.	.	16cc#Jk	.
=67	=67	=67	=67	=67
4F#]	4e]	4a#]	4cc#	.
4G#	2e	4b	8bL	.
.	.	.	8ee	.
4A#X	.	4cc#	8gg#	.
.	.	.	8ff#J	.
!!LO:LB:g=original
=68	=68	=68	=68	=68
2B	4e	4cc#	2ff#	.
.	4d#	4b	.	.
4rAA	4rc	4f#	4r	.
*	*	*v	*v	*
*v	*v	*	*
=69	=69	=69
8.AAL 8.A	4r	.
16GG#Jk 16G#	.	.
*	*^	*
4CC# 4C#	4a	8cc#L	.
.	.	8gg#	.
4CC# 4C#	4a 4cc#	8ff#	.
.	.	8eeJ	.
*	*v	*v	*
=70	=70	=70
8.C#L 8.c#	4r	.
16BBJk 16B	.	.
*	*^	*
4FF# 4F#	4f#	8aL	.
.	.	8ee	.
4FF# 4F#	4f# 4a	8dd#	.
.	.	8cc#J	.
*	*v	*v	*
=71	=71	=71
8.F#L 8.f#	4r	.
16EJk 16e	.	.
*	*^	*
4AA 4A	4c#	8f#L	.
.	.	8cc#	.
4AA 4A	4c# 4f#	8b	.
.	.	8aJ	.
=72	=72	=72	=72
2BB 2B	2.d#	8g#L	.
.	.	8e#X	.
.	.	8g#	.
.	.	8f#J	.
8AAL 8A	.	4b	.
8GG#J 8G#	.	.	.
*	*v	*v	*
=73	=73	=73
8.AAL 8.A	4r	.
16GG#Jk 16G#	.	.
*	*^	*
4CC# 4C#	4a	8cc#L	.
.	.	8gg#	.
4CC# 4C#	4a 4cc#	8ff#	.
.	.	8eenJ	.
*	*v	*v	*
!!LO:LB:g=original
=74	=74	=74
8.C#L 8.c#	4r	.
16BBJk 16B	.	.
*	*^	*
4FF# 4F#	4f#	8aL	.
.	.	8ee	.
4FF# 4F#	4f# 4a	8dd#	.
.	.	8cc#J	.
*	*v	*v	*
=75	=75	=75
8.F#L 8.f#	4r	.
16EJk 16e	.	.
*	*^	*
4AA 4A	4c#	8f#L	.
.	.	8cc#	.
4AA 4A	4c# 4f#	8b	.
.	.	8aJ	.
=76	=76	=76	=76
2.BB 2.B	2.d#	8g#L	.
.	.	8e#X	.
.	.	8g#	.
.	.	8f#	.
.	.	8cc#	.
.	.	8bJ	.
*	*v	*v	*
=77	=77	=77
*^	*	*
*	*^	*	*
4rAA	2.B/	4ra	4r	pp
2A\	.	4g#	2dd#	.
.	.	4f#	.	.
=78	=78	=78	=78	=78
2G#\	4B/	[2.e	8eeL	.
.	.	.	8dd#J	.
.	[2c#/	.	4.cc#	.
[4Gn\	.	.	.	.
.	.	.	8b	.
*	*v	*v	*	*
=79	=79	=79	=79
4G]	4.c#] 4.e]	4.a	.
[2F#	.	.	.
.	[4.e [4.a	8gg#	.
.	.	8ff#L	.
.	.	8cc#J	.
!!LO:LB:g=original
=80	=80	=80	=80
4F#]	4e] 4a]	8dd#L	.
.	.	8cc#J	.
4B	4d# 4g#	4b	.
*	*^	*	*
[4A\	8c#/L	[4f#	8cc#L	.
.	8BJ	.	8dd#J	.
=81	=81	=81	=81	=81
4A\]	4B/	4f#]	4bb	.
*	*v	*v	*	*
4Gn	[2B [2f#	8bL	.
.	.	8ff#J	.
[4G#X	.	8eeL	.
.	.	8ddnJ	.
=82	=82	=82	=82
4G#]	4B] 4f#]	4ddn	.
[2C# 2B	4f#	8r	.
.	.	8cc#	.
.	[4e#X	8ddL	.
.	.	8cc#J	.
=83	=83	=83	=83
4C#] 4A	4e#]	4aa	.
4Fn	[2A [2en	8aL	.
.	.	8eeJ	.
[4F#X	.	8ddnL	.
.	.	8ccnJ	.
=84	=84	=84	=84
4F#]	4A] 4e]	4ccn	.
[2BB 2A	4e	8r	.
.	.	8b	.
.	[4d#X	8cc#XL	.
.	.	8bJ	.
=85	=85	=85	=85
4BB] 4G#	4d#]	4gg#	.
*	*	*^	*
4G#	[2e	4b	8bL	.
.	.	.	8eeJ	.
[4F#	.	[4a#X	8.dd#L	<
.	.	.	16cc#Jk	.
!!LO:LB:g=original
=86	=86	=86	=86	=86
4F#]	4e]	4a#]	4cc#	.
4Fn	[2dn	4a	8anL	.
.	.	.	8ddnJ	.
[4E	.	[4g#	8.cc#L	.
.	.	.	16bJk	.
=87	=87	=87	=87	=87
4E]	4d]	4g#]	4b	.
4E	2c#	4g#	8g#L	.
.	.	.	8cc#	.
4D#X	.	4f##X	8b	.
.	.	.	8aJ	.
*v	*v	*	*	*
=88	=88	=88	=88
2.GG# 2.G#	2B#X 2f#X	8aL	.
.	.	8f##X	.
.	.	8a	.
.	.	8g#	.
.	4f#X 4b#X	8ddn	.
.	.	8dd#XJ	.
=89	=89	=89	=89
16qCC#\LL	.	.	.
16qGG#JJ	.	.	.
*^	*	*^	*
2C#	2G#	2e\	8cc#	8.eL 8.ee	f
.	.	.	8r	.	.
.	.	.	.	16d#Jk 16dd#	.
*	*	*	*v	*v	*
.	.	.	4G# 4g#	.
4C#	4G#	4e	4G# 4g#	.
=90	=90	=90	=90	=90
*	*	*	*^	*
2.C#	4A	4.c#\	4e	8G#L 8g#	.
.	.	.	.	8F#J 8f#	.
.	8G#L	.	4e	8BL 8b	.
.	8F#J	8c#\	.	8AJ 8a	.
*	*	*	*v	*v	*
.	12AL	8eL 8g#	8c#L 8cc#	.
.	12B	.	.	.
.	.	8d#J 8f#	8d#J 8dd#	.
.	12AJ	.	.	.
=91	=91	=91	=91	=91
2.C#	2G#	8c#	8.eL 8.ee	.
.	.	8r	.	.
.	.	.	16d#Jk 16dd#	.
.	.	4ryy	4.g# 4.gg#	.
.	4e	8cc#L	.	.
.	.	8bJ	8g# 8gg#	.
!!LO:LB:g=original
=92	=92	=92	=92	=92
2.F#	4e	4a	8g#L 8gg#	.
.	.	.	8f# 8ff#	.
.	8d#L	4f#	8B 8b	<
.	8c#J	.	8A 8a	.
.	12aL	4cc#	8e 8cc# 8ee	.
.	12b	.	.	.
.	.	.	8f#J 8dd# 8ff#	.
.	12aJ	.	.	.
=93	=93	=93	=93	=93
2c#	8.f##XL	4cc#	8.aL 8.dd# 8.aa	.
.	16g#Jk	.	16g#Jk 16ee 16gg#	.
.	4g#	4.g#	4cc# 4ee 4ccc#	.
4C#	4r	.	4cc# 4ee 4ccc#	.
.	.	8b	.	.
*v	*v	*	*	*
=94	=94	=94	=94
4FFF# 4FF# 4C#	8a	8cc#L 8ee 8ccc#	ff
.	8r	8bJ 8bb	.
4E 4A 4e	4a 4cc#	12aL 12aa	.
.	.	12.g# 12.gg#	.
.	.	24c#Jk 24cc#	.
4G# 4A 4g#	4a 4cc#	4e 4ee	.
*	*v	*v	*
=95	=95	=95
4AAA 4AA 4F#	8eL 8cc# 8ee	>
.	8d#J 8b#X 8dd#	.
4F# 4f#	8c#L 8cc#	.
.	8F#J 8f#	.
*	*^	*
4DD# 4D#	4c# 4f#	12G#L 12g#	.
.	.	12Bn 12bn	.
.	.	12AJ 12a	.
=96	=96	=96	=96
*	*	*^	*
2.GG# 2.G#	2c#\	8f#L	[4G# [4g#	.
.	.	8eJ	.	.
.	.	4d#	12G#L] 12g#]	.
.	.	.	12F##X 12f##X	.
.	.	.	12G#J 12g#	.
*	*	*v	*v	*
.	4B#X 4f#X	6A 6a	.
.	.	12G# 12g#	.
!!LO:LB:g=original
=97	=97	=97	=97
*^	*	*	*
16qCC#\LL	.	.	.	.
16qGG#JJ	.	8qc#\	.	.
2C#	2G#	2e	8.eL 8.ee	f
.	.	.	16d#Jk 16dd#	.
.	.	.	4G# 4g#	.
4C#	4G#	4e	4G# 4g#	.
=98	=98	=98	=98	=98
*	*	*	*^	*
2.C#	4A	4.c#\	4e	8G#L 8g#	.
.	.	.	.	8F# 8f#	.
.	8G#L	.	4e	8B 8b	.
.	8F#J	8c#\	.	8A 8a	.
*	*	*	*v	*v	*
.	12AL	8eL 8g#	8c# 8cc#	.
.	12B	.	.	.
.	.	8d#J 8f#	8d#J 8dd#	.
.	12AJ	.	.	.
=99	=99	=99	=99	=99
2.C#	2G#	8c#	8.eL 8.ee	.
.	.	8r	.	.
.	.	.	16d#Jk 16dd#	.
.	.	4ryy	4.g# 4.gg#	.
.	4e	8cc#L	.	.
.	.	8bJ	8g# 8gg#	.
=100	=100	=100	=100	=100
2.F#	4e	4a	8g#L 8gg#	.
.	.	.	8f# 8ff#	.
.	8d#L	4f#	8B 8b	<
.	8c#J	.	8A 8a	.
.	12aL	4cc#	8e 8cc# 8ee	.
.	12b	.	.	.
.	.	.	8f#J 8dd# 8ff#	.
.	12aJ	.	.	.
=101	=101	=101	=101	=101
2c#	8.f##XL	4cc#	8.aL 8.dd# 8.aa	.
.	16g#Jk	.	16g#Jk 16ee 16gg#	.
.	4g#	4cc#	4ee 4eee	.
4C#	4r	4bb	4ee 4eee	.
*v	*v	*	*	*
!!LO:LB:g=original
=102	=102	=102	=102
8.FFF# 8.FF# 8.C#	12eeL 12eee	4aa	.
.	12dd# 12ddd#	.	.
.	12cc#J 12ccc#	.	.
16E 16e	.	.	.
*	*v	*v	*
4E 4e	12bL 12gg# 12bb	.
.	12a 12ff# 12aa	.
.	12c#J 12a 12cc#	.
*^	*^	*
4E 4e	4A	6g# 6gg#	4ee	.
.	.	12g# 12gg#	.	.
*	*	*v	*v	*
*v	*v	*	*
=103	=103	=103
12EL 12A 12e	12g#L 12cc# 12gg#	.
12D# 12A 12d#	12g# 12dd# 12gg#	.
12C#J 12A 12c#	12g#J 12ee 12gg#	.
12BBL 12E 12B	12cc#L 12gg# 12ccc#	.
12AA 12E 12A	12cc# 12ff# 12ccc#	<
12EEJ 12E	12cc#J 12gg# 12ccc#	(
6GG# 6C# 6G#	12eeL 12bb 12eee	(
.	12ee 12bb 12eee	(
12FF# 12C# 12F#	12eeJ 12aa 12eee	[
=104	=104	=104
8CC# 8GG# 8E	12gg#L 12ccc# 12ggg#	sff
.	12dd# 12ddd#	.
8r	.	>
.	12eeJ 12eee	)
4r	12dd#L 12ddd#	)
.	12g# 12gg#	)
.	12aJ 12aa	)
4r	12g#L 12gg#	)
.	12b#X	)
.	12cc#J	]
=105	=105	=105
*	*^	*
4CC# 4C#	4r	8.eeL	f
.	.	16ddnJk	.
*^	*	*	*
4C#	4A	4f#	4a	.
4C#	4G#	[4e	4a	.
!!LO:LB:g=original
=106	=106	=106	=106	=106
2.C#	2F#	4e]	8aL	.
.	.	.	8g#	.
.	.	4.e	8b	.
.	.	.	8a	.
*	*	*	*^	*
.	12AL	.	8g#L	8cc#	.
.	12B	.	.	.	.
.	.	8d#\	8f#J	8dd#XJ	.
.	12AJ	.	.	.	.
=107	=107	=107	=107	=107	=107
2.C#	2G#	8c#\	2e	8.eeL	.
.	.	8r	.	.	<
.	.	.	.	16dd#Jk	(
.	.	4ryy	.	4.gg#	(
*	*	*v	*v	*	*
.	4e	8cc#L	.	(
.	.	8bJ	8gg#	[
=108	=108	=108	=108	=108
4F#	8eL	4a	8gg#L	>
.	8d#J	.	8ff#J	)
4C#	4e	4g#	4ee	)
4rAA	4rA	4r	8b#XL	)
.	.	.	8cc#J	]
*v	*v	*	*	*
=109	=109	=109	=109
4r	4r	8.eeL	.
.	.	16ddnJk	.
*^	*	*	*
4C#	4F#	4dn	4a	.
4Cn	4F#	4d	4a	.
=110	=110	=110	=110	=110
[2.BB	2F#	4dn	8aL	.
.	.	.	8g#	.
.	.	4d#X	8b	.
.	.	.	8a	>
.	4A	4f#	8ddn	.
.	.	.	8dd#XJ	.
=111	=111	=111	=111	=111
4BB]	4Gn	4e	8eeL	.
.	.	.	8ddnJ	.
4BB	4E	4cn	4gn	.
4BB-X	4E	4c	4g	.
!!LO:LB:g=original
=112	=112	=112	=112	=112
2.AA	2E	4cn	8gnL	.
.	.	.	8f#	.
.	.	4c#X	8a	.
.	.	.	8g	>
.	4Gn	4e	8ccn	.
.	.	.	8cc#XJ	.
=113	=113	=113	=113	=113
4AA	4Fn	4dn	8ddnL	p <
.	.	.	8ccnJ	[
4AA-X	4Dn	4B-X	4fn	> ]
[4GGn	4D	4Bn	4f	>
=114	=114	=114	=114	=114
4GG]	4E-X	4cn	8ccnL	<
.	.	.	8b-XJ	(
4GG-X	4Cn	4A-X	4e-X	[ >
4FFn	4C	4An	4e-	]
=115	=115	=115	=115	=115
2.EEn	2.C#X	2.A	8.aL	pp
.	.	.	16g#XJk	.
.	.	.	4c#X	<
.	.	.	4c#	(
*	*	*clefF4	*	*
=116	=116	=116	=116	=116
2EE	[2.AA	2G#	[2.c#	(
4DDn	.	4F#	.	[
=117	=117	=117	=117	=117
4DDn	2AA]	2.F#	8c#L]	>
.	.	.	8B	)
4DD#X	.	.	8c#	)
.	.	.	8B#X	)
*	*	*	*^	*
4GGG#	4GG#	.	4B#	8dn	)
.	.	.	.	8d#XJ	)
*	*	*	*v	*v	*
=118	=118	=118	=118	=118
2.CC#	2.GG#	2.E	8.c#L 8.e	]
.	.	.	16d#Jk	.
.	.	.	2G#	.
*	*	*v	*v	*
*v	*v	*	*
==	==	==
*-	*-	*-
!!!system-decoration: {(*)}
!!!filter: flipper -a
!!!RDF**dynam: > = dim.
!!!ENC: Bryan Jacob Bell
!!!END: November 2021 to April 2022
!!!PED: Günter Philipp
!!!PTL: Ausgewählte Klavierwerke (Edition Peters)
!!!URL-pdf: https://github.com/bel28kent/Mysterium/blob/main/reference_editions/op25.pdf
